static/images/clients/logo-ewa-cell.svg

<svg width="256" height="166" viewBox="0 0 256 166" fill="none" xmlns="http://www.w3.org/2000/svg">
<rect opacity="0.1" width="256" height="166" fill="#95BCD1"/>
<path d="M83.0266 68.7329C83.8159 65.829 86.5073 64.4617 89.7422 64.4617C94.4263 64.4617 96.7295 66.3889 96.7295 70.1523V80.544H92.55H92.3818V78.6167H92.2654C91.4114 80.0361 89.7551 80.9346 87.4001 80.9346C83.9712 80.9346 82.3149 79.0985 82.3149 76.4681C82.3149 73.7985 83.8806 72.2619 87.4648 71.715L90.3115 71.2592C91.7866 71.0378 92.1748 70.8034 92.1748 70.0091C92.1748 68.6939 91.4761 67.6912 89.7551 67.6912C88.0989 67.6912 87.2061 68.5636 87.0896 70.0091L83.0266 68.7329ZM90.2468 73.8246L88.707 74.085C87.3225 74.3064 86.7791 74.9835 86.7791 75.9472C86.7791 77.1061 87.5166 77.7182 88.8364 77.7182C90.428 77.7182 92.1748 76.7806 92.1748 74.3064V73.4339C92.1619 73.4339 90.8809 73.7204 90.2468 73.8246Z" fill="black"/>
<path d="M101.53 68.3162H98.5928V64.8523H101.53V60.0862H106.292V64.8393H110.031V68.3162H106.292V74.4626C106.292 76.1294 106.745 76.7805 108.466 76.7805H110.031V80.5439H107.443C102.876 80.5439 101.53 79.0985 101.53 74.7491V68.3162V68.3162Z" fill="black"/>
<path d="M155.772 64.4617C160.857 64.4617 164.299 67.4177 164.299 72.6916C164.299 77.9005 160.689 80.9216 155.772 80.9216C150.687 80.9216 147.206 77.9656 147.206 72.6916C147.206 67.4828 150.855 64.4617 155.772 64.4617ZM155.772 77.4187C158.011 77.4187 159.447 75.6216 159.447 72.6916C159.447 69.6966 158.011 67.9907 155.772 67.9907C153.534 67.9907 152.097 69.7617 152.097 72.6916C152.097 75.6216 153.534 77.4187 155.772 77.4187Z" fill="black"/>
<path d="M166.447 64.8523H170.989V67.1312H171.118C171.882 65.5295 173.228 64.4617 175.207 64.4617C175.841 64.4617 176.579 64.5528 177.381 65.0998L176.553 69.1887C175.854 68.8371 175.246 68.6678 174.638 68.6678C172.309 68.6678 171.183 70.6342 171.183 73.3037V80.544H166.46V64.8523H166.447Z" fill="black"/>
<path d="M178.494 57H183.217V70.8555L188.587 64.8393H193.957L188.108 71.116L194.5 80.544H189.065L185.002 74.4627L183.217 76.3899V80.544H178.494V57Z" fill="black"/>
<path d="M70.1777 87.8624H76.0264L84.2041 109.987H78.9636L77.4238 105.455H68.6121L67.0723 109.987H62L70.1777 87.8624ZM69.9189 101.536H76.1169L73.115 92.4723H72.9856L69.9189 101.536Z" fill="black"/>
<path d="M86.2226 94.2953H90.7644V96.5742H90.8938C91.6572 94.9725 93.0029 93.9047 94.9827 93.9047C95.6167 93.9047 96.3542 93.9958 97.1565 94.5427L96.3284 98.6317C95.6296 98.2801 95.0215 98.1238 94.4133 98.1238C92.0842 98.1238 90.9585 100.09 90.9585 102.76V110H86.2356V94.2953H86.2226Z" fill="black"/>
<path d="M101.53 97.7722H98.5928V94.2953H101.53V89.5422H106.292V94.2953H110.031V97.7722H106.292V103.919C106.292 105.585 106.745 106.237 108.466 106.237H110.031V110H107.443C102.876 110 101.53 108.555 101.53 104.218V97.7722V97.7722Z" fill="black"/>
<path d="M143.415 109.075H123.061V109.961H143.415V109.075Z" fill="black"/>
<path d="M64.6267 58.4194H80.0117V62.5084H69.5825V67.3266H78.9766V71.1551H69.5825V76.4551H80.0505V80.544H64.6267V58.4194Z" fill="black"/>
<path d="M117.821 58.4324H123.191L126.244 74.085H126.374L130.553 58.4324H135.47L139.844 74.085H139.973L142.872 58.4324H148.112L143.182 80.5569H137.075L133.012 64.9695H132.882L128.923 80.57H122.815L117.821 58.4324Z" fill="black"/>
</svg>

<svg xmlns="http://www.w3.org/2000/svg" fill="none" viewBox="0 0 256 166">
  <path fill="#95BCD1" d="M0 0h256v166H0z" opacity=".1"/>
  <path fill="#000" d="M83 68.7c.8-2.9 3.5-4.2 6.7-4.2 4.7 0 7 1.9 7 5.7v10.3h-4.3v-1.9h-.1c-.9 1.4-2.5 2.3-4.9 2.3-3.4 0-5-1.8-5-4.4 0-2.7 1.5-4.2 5-4.8l3-.4c1.4-.3 1.8-.5 1.8-1.3 0-1.3-.7-2.3-2.4-2.3s-2.6.9-2.7 2.3l-4-1.3zm7.2 5.1l-1.5.3c-1.4.2-2 .9-2 1.8 0 1.2.8 1.8 2.1 1.8 1.6 0 3.4-1 3.4-3.4v-.9l-2 .4zM101.5 68.3h-3V65h3V60h4.8v4.7h3.7v3.5h-3.7v6.2c0 1.6.4 2.3 2.2 2.3h1.5v3.7h-2.6c-4.5 0-5.9-1.4-5.9-5.8v-6.4zM155.8 64.5c5 0 8.5 3 8.5 8.2 0 5.2-3.6 8.2-8.5 8.2-5.1 0-8.6-3-8.6-8.2 0-5.2 3.7-8.2 8.6-8.2zm0 13c2.2 0 3.6-1.9 3.6-4.8 0-3-1.4-4.7-3.6-4.7-2.3 0-3.7 1.8-3.7 4.7 0 3 1.4 4.7 3.7 4.7zM166.4 64.9h4.6V67h.1a4.3 4.3 0 014.1-2.6c.6 0 1.4 0 2.2.6l-.8 4c-.7-.3-1.4-.4-2-.4-2.3 0-3.4 2-3.4 4.6v7.2h-4.7V65zM178.5 57h4.7v13.9l5.4-6h5.4L188 71l6.4 9.4h-5.4l-4.1-6-1.8 1.9v4.1h-4.7V57zM70.2 87.9H76l8.2 22H79l-1.6-4.4h-8.8l-1.5 4.5H62l8.2-22.1zm-.3 13.6h6.2l-3-9H73l-3 9zM86.2 94.3h4.6v2.3a4.3 4.3 0 014.2-2.7c.6 0 1.4.1 2.2.6l-.9 4.1c-.7-.3-1.3-.5-1.9-.5-2.3 0-3.4 2-3.4 4.7v7.2h-4.8V94.3zM101.5 97.8h-3v-3.5h3v-4.8h4.8v4.8h3.7v3.5h-3.7v6.1c0 1.7.4 2.3 2.2 2.3h1.5v3.8h-2.6c-4.5 0-5.9-1.4-5.9-5.8v-6.4zM143.4 109h-20.3v1h20.3v-1zM64.6 58.4H80v4.1H69.6v4.8H79v3.9h-9.4v5.3H80v4H64.6v-22zM117.8 58.4h5.4l3 15.7h.2l4.2-15.7h4.9l4.3 15.7h.2l2.9-15.7h5.2l-5 22.2h-6L133 65h-.2l-4 15.6h-6l-5-22.2z"/>
</svg>
